!!!COM: Ockeghem, Johannes
!!!CDT: ~1425-1497/02/06
!!!OTL: D'ung aultre amer
!!!AGN: Song; Chanson
!!!SCT: Ock3003
!!!SCA: Ock3003
!!!voices: 3
**kern	**text	**text	**text	**kern	**text	**text	**text	**kern	**text	**text	**text
*staff3	*staff3	*staff3	*staff3	*staff2	*staff2	*staff2	*staff2	*staff1	*staff1	*staff1	*staff1
*Ivox	*	*	*	*Ivox	*	*	*	*Ivox	*	*	*
*I"Contra	*	*	*	*I"Tenor	*	*	*	*I"Discantus	*	*	*
*I'C	*	*	*	*I'T	*	*	*	*I'D	*	*	*
*clefF4	*	*	*	*clefGv2	*	*	*	*clefG2	*	*	*
*k[b-]	*	*	*	*k[b-]	*	*	*	*k[b-]	*	*	*
*M2/1	*	*	*	*M2/1	*	*	*	*M2/1	*	*	*
*met(C|)	*	*	*	*met(C|)	*	*	*	*met(C|)	*	*	*
=1-	=1-	=1-	=1-	=1-	=1-	=1-	=1-	=1-	=1-	=1-	=1-
!!!OMD: Rondeau
1.d	D'ung	Je	La	1.G	D'ung	Je	La	0g	D'ung	Je	La
4c\	.	.	.	2E/	.	.	.	.	.	.	.
4B-\	.	.	.	.	.	.	.	.	.	.	.
=2	=2	=2	=2	=2	=2	=2	=2	=2	=2	=2	=2
1A	aul-	l'ai-	mort,	1F	aul-	l'ai-	mort,	1a	aul-	l'ai-	mort,
1B-	-tre'a-	-me	par	1G	-tre'a-	-me	par	1g	-tre'a-	-me	par
=3	=3	=3	=3	=3	=3	=3	=3	=3	=3	=3	=3
0G	-mer	tant	Dieu,	0B-	-mer	tant	Dieu,	1.dd	-mer	tant	Dieu,
.	.	.	.	.	.	.	.	4cc\	.	.	.
.	.	.	.	.	.	.	.	4b-\	.	.	.
=4	=4	=4	=4	=4	=4	=4	=4	=4	=4	=4	=4
0F	mon	que	a-	0c	mon	que	a-	1a	.	.	.
.	.	.	.	.	.	.	.	1a	mon	que	a-
=5	=5	=5	=5	=5	=5	=5	=5	=5	=5	=5	=5
0D	cueur	ja-	-vant	1.d	cueur	ja-	-vant	1a	cueur	ja-	-vant
.	.	.	.	.	.	.	.	[1dd	.	.	.
.	.	.	.	2c\	s'a-	-mais	me	.	.	.	.
=6	=6	=6	=6	=6	=6	=6	=6	=6	=6	=6	=6
1G	s'a-	-mais	me	1B-	-bes-	ne	des-	1dd]	.	.	.
1A	.	.	.	1A	-se-	se-	-fe-	1cc	s'a-	-mais	me
=7	=7	=7	=7	=7	=7	=7	=7	=7	=7	=7	=7
2B-\	-bes-	ne	des-	0G	-roit;	-roit	-roit	2b-\	-bes-	ne	des-
2c\	-se-	se-	-fe-	.	.	.	.	1b-	-se-	se-	-fe-
[1d	-roit;	-roit	-roit	.	.	.	.	.	.	.	.
.	.	.	.	.	.	.	.	4a/	.	.	.
.	.	.	.	.	.	.	.	4g/	.	.	.
=8	=8	=8	=8	=8	=8	=8	=8	=8	=8	=8	=8
2d\]	.	.	.	0D	.	.	.	0f	-roit;	-roit	-roit
4c\	.	.	.	.	.	.	.	.	.	.	.
4B-\	.	.	.	.	.	.	.	.	.	.	.
1A	.	.	.	.	.	.	.	.	.	.	.
=9	=9	=9	=9	=9	=9	=9	=9	=9	=9	=9	=9
1G	.	.	.	1B-	Il	Pos-	Qu'en	1r	.	.	.
1D	.	.	.	1A	.	.	.	1f	Il	Pos-	Qu'en
=10	=10	=10	=10	=10	=10	=10	=10	=10	=10	=10	=10
1G	.	.	.	1B-	ne	-si-	mon	1g	ne	-si-	mon
1r	.	.	.	1G	.	.	.	1b-	fault	-ble'a	vi-
=11	=11	=11	=11	=11	=11	=11	=11	=11	=11	=11	=11
1.c	Il	Pos-	Qu'en	2F/	fault	-ble'a	vi-	0a	ja	moi	-vant
.	.	.	.	1F	ja	moi	-vant	.	.	.	.
2A\	ne	-si-	mon	4E/	.	.	.	.	.	.	.
.	.	.	.	4F/	.	.	.	.	.	.	.
=12	=12	=12	=12	=12	=12	=12	=12	=12	=12	=12	=12
1B-	fault	-ble'a	vi-	1G	pen-	de	.	1.g	pen-	de	j'a-
[1c	ja	moi	-vant	[1C	.	.	j'a-	.	.	.	.
.	.	.	.	.	.	.	.	2f/	.	.	.
=13	=13	=13	=13	=13	=13	=13	=13	=13	=13	=13	=13
1c]	.	.	.	1C]	.	.	.	1e	.	.	.
1B-	pen-	de	j'a-	1G	-ser	con-	-coinc-	[1d	-ser	con-	-coinc-
=14	=14	=14	=14	=14	=14	=14	=14	=14	=14	=14	=14
2A\	-ser	con-	-coinc-	2F/	que	-sen-	-tas-	1d]	.	.	.
2B-\	.	.	.	1G	je	-tir	-se'ung	.	.	.	.
2G\	que	-sen-	-tas-	.	.	.	.	1d	que	-sen-	-tas-
[2A\	je	-tir	-se'ung	4F/	.	.	.	.	.	.	.
.	.	.	.	4E/	.	.	.	.	.	.	.
=15	=15	=15	=15	=15	=15	=15	=15	=15	=15	=15	=15
2A\]	.	.	.	2F/	.	.	.	1d	je	-tir	-se'ung
2B-\	.	.	.	2D/	.	.	.	.	.	.	.
1c	l'es-	l'es-	es-	1C	.	.	.	[1e	l'es-	l'es-	es-
=16	=16	=16	=16	=16	=16	=16	=16	=16	=16	=16	=16
2B-\	.	.	.	0G	l'es-	l'es-	es-	2e/]	.	.	.
1B-	-tran-	-chan-	-tran-	.	.	.	.	2d/	.	.	.
.	.	.	.	.	.	.	.	1e	.	.	.
2G\	.	.	.	.	.	.	.	.	.	.	.
=17	=17	=17	=17	=17	=17	=17	=17	=17	=17	=17	=17
1B-	.	.	.	1D	-tran-	-chan-	-tran-	2f/	-tran-	-chan-	-tran-
.	.	.	.	.	.	.	.	2d/	.	.	.
[1A	.	.	.	1F	.	.	.	[1d	.	.	.
=18	=18	=18	=18	=18	=18	=18	=18	=18	=18	=18	=18
1A]	.	.	.	0E	.	.	.	1d]	.	.	.
1G	.	.	.	.	.	.	.	2c#i/	.	.	.
.	.	.	.	.	.	.	.	2Bni/	.	.	.
=19	=19	=19	=19	=19	=19	=19	=19	=19	=19	=19	=19
1AN	-ge.	-ge.	-ge.	0DN	-ge.	-ge.	-ge.	[0dN	-ge.	-ge.	-ge.
1F	.	.	.	.	.	.	.	.	.	.	.
=20	=20	=20	=20	=20	=20	=20	=20	=20	=20	=20	=20
2G\	Ne	&	Ne	0B-	Ne	&	Ne	0d]	.	&	.
1d	.	.	.	.	.	.	.	.	.	.	.
2B-\	.	.	.	.	.	.	.	.	.	.	.
=21	=21	=21	=21	=21	=21	=21	=21	=21	=21	=21	=21
1A	que	.	cui-	1c	que	.	cui-	0r	.	.	.
1A	pour	.	-de	1c	pour	.	-de	.	.	.	.
=22	=22	=22	=22	=22	=22	=22	=22	=22	=22	=22	=22
0G	rien	.	nul	0d	rien	.	nul	0b-	Ne	.	Ne
=23	=23	=23	=23	=23	=23	=23	=23	=23	=23	=23	=23
1r	.	.	.	0e-i	de	.	qu'a	1cc	que	.	cui-
1c	de	.	qu'a	.	.	.	.	1cc	pour	.	-de
=24	=24	=24	=24	=24	=24	=24	=24	=24	=24	=24	=24
1.B-	ce	.	ce-	1d	ce	.	ce-	0dd	rien	.	nul
.	.	.	.	[1f	pro-	.	-la	.	.	.	.
4A\	.	.	.	.	.	.	.	.	.	.	.
4G\	.	.	.	.	.	.	.	.	.	.	.
=25	=25	=25	=25	=25	=25	=25	=25	=25	=25	=25	=25
1F	pro-	.	-la	1f]	.	.	.	1dd	de	.	qu'a
1G	.	.	.	1B-	.	.	.	1dd	ce	.	ce-
=26	=26	=26	=26	=26	=26	=26	=26	=26	=26	=26	=26
1A	-pos	.	je	0A	-pos	.	je	2cc\	pro-	.	-la
.	.	.	.	.	.	.	.	1cc	-pos	.	je
1F	.	.	.	.	.	.	.	.	.	.	.
.	.	.	.	.	.	.	.	2a/	.	.	.
=27	=27	=27	=27	=27	=27	=27	=27	=27	=27	=27	=27
1E-i	me	.	me	0B-	me	.	me	1g	me	.	me
1D	.	.	.	.	.	.	.	[1f	chan-	.	ran-
=28	=28	=28	=28	=28	=28	=28	=28	=28	=28	=28	=28
1BB-	chan-	.	ran-	1f	chan-	.	ran-	2f/]	.	.	.
.	.	.	.	.	.	.	.	2d/	.	.	.
1C	.	.	.	1e	.	.	.	1c	.	.	.
=29	=29	=29	=29	=29	=29	=29	=29	=29	=29	=29	=29
0BB-	.	.	.	1f	.	.	.	1.d	.	.	.
.	.	.	.	[1d	.	.	.	.	.	.	.
.	.	.	.	.	.	.	.	2B-/	.	.	.
=30	=30	=30	=30	=30	=30	=30	=30	=30	=30	=30	=30
1D	.	.	.	1d]	.	.	.	1B-	.	.	.
1C	.	.	.	1e	.	.	.	1c	.	.	.
=31	=31	=31	=31	=31	=31	=31	=31	=31	=31	=31	=31
1.D	.	.	.	1f	.	.	.	1B-	.	.	.
.	.	.	.	1B-	.	.	.	1b-	.	.	.
2BB-/	.	.	.	.	.	.	.	.	.	.	.
=32	=32	=32	=32	=32	=32	=32	=32	=32	=32	=32	=32
1E-i	.	.	.	0c	.	.	.	1g	.	.	.
1F	.	.	.	.	.	.	.	1a	.	.	.
=33	=33	=33	=33	=33	=33	=33	=33	=33	=33	=33	=33
1.G	-ge,	.	-ge;	1.B-	-ge,	.	-ge;	0b-	-ge,	.	-ge;
2F\	.	.	.	2A/	.	.	.	.	.	.	.
=34	=34	=34	=34	=34	=34	=34	=34	=34	=34	=34	=34
1E-i	.	.	.	1G	.	.	.	0r	.	.	.
1D	.	.	.	1F	.	.	.	.	.	.	.
=35	=35	=35	=35	=35	=35	=35	=35	=35	=35	=35	=35
1r	.	.	.	0G	Car	.	Ma	0b-	Car	.	Ma
1E-i	Car	.	Ma	.	.	.	.	.	.	.	.
=36	=36	=36	=36	=36	=36	=36	=36	=36	=36	=36	=36
0F	mon	.	le-	0D	mon	.	le-	1a	mon	.	le-
.	.	.	.	.	.	.	.	1a	hon-	.	-au-
=37	=37	=37	=37	=37	=37	=37	=37	=37	=37	=37	=37
0G	hon-	.	-au-	0E	hon-	.	-au-	2g/	-neur	.	-t&eacute;
.	.	.	.	.	.	.	.	1cc	.	.	.
.	.	.	.	.	.	.	.	2b-\	.	.	.
=38	=38	=38	=38	=38	=38	=38	=38	=38	=38	=38	=38
0D	-neur	.	-t&eacute;	0F	-neur	.	-t&eacute;	2a/	.	.	.
.	.	.	.	.	.	.	.	2g/	.	.	.
.	.	.	.	.	.	.	.	1a	.	.	.
=39	=39	=39	=39	=39	=39	=39	=39	=39	=39	=39	=39
1d	en	.	trop	0G	en	.	trop	1b-	en	.	trop
2.B-\	.	.	.	.	.	.	.	1g	.	.	.
4A\	.	.	.	.	.	.	.	.	.	.	.
=40	=40	=40	=40	=40	=40	=40	=40	=40	=40	=40	=40
1G	ap-	.	fort	1B-	ap-	.	fort	1dd	ap-	.	fort
2A\	-pe-	.	se	1A	-pe-	.	se	2cc\	-pe-	.	se
[2F\	-tis-	.	mes-	.	.	.	.	[2cc\	-tis-	.	mes-
=41	=41	=41	=41	=41	=41	=41	=41	=41	=41	=41	=41
2F\]	.	.	.	0c	-tis-	.	mes-	2cc\]	.	.	.
2G\	.	.	.	.	.	.	.	2b-\	.	.	.
1A	.	.	.	.	.	.	.	2a/	.	.	.
.	.	.	.	.	.	.	.	2g/	.	.	.
=42	=42	=42	=42	=42	=42	=42	=42	=42	=42	=42	=42
2G\	.	.	.	1d	.	.	.	1b-	.	.	.
2D\	.	.	.	.	.	.	.	.	.	.	.
2G\	.	.	.	2B-\	.	.	.	2g/	.	.	.
[2F\	.	.	.	2c\	.	.	.	[2a/	.	.	.
=43	=43	=43	=43	=43	=43	=43	=43	=43	=43	=43	=43
4F\]	.	.	.	2.d\	.	.	.	4a/]	.	.	.
4G\	.	.	.	.	.	.	.	4g/	.	.	.
1A	.	.	.	.	.	.	.	4f/	.	.	.
.	.	.	.	4c\	.	.	.	4e/	.	.	.
.	.	.	.	2A/	.	.	.	2f/	.	.	.
[2B-\	.	.	.	[2G/	.	.	.	2e/	.	.	.
=44	=44	=44	=44	=44	=44	=44	=44	=44	=44	=44	=44
2B-\]	.	.	.	2G/]	.	.	.	2d/	.	.	.
2G\	.	.	.	2B-\	.	.	.	1g	-se-	.	-fe-
1D	-se-	.	-fe-	1A	-se-	.	-fe-	.	.	.	.
.	.	.	.	.	.	.	.	2f#i/	.	.	.
=45	=45	=45	=45	=45	=45	=45	=45	=45	=45	=45	=45
0dl	-roit.	.	-roit.	0Gl	-roit.	.	-roit.	0gl	-roit.	.	-roit.
=||	=||	=||	=||	=||	=||	=||	=||	=||	=||	=||	=||
*-	*-	*-	*-	*-	*-	*-	*-	*-	*-	*-	*-
!!!RDF**kern: l=long note in original notation
!!!RDF**kern: i=editorial accidental
!!!RDF**kern: N=signum congruentiae
!!!ENC: Jesse Rodin (8/16/2012)
!!!END: 2017/03/16/
!!!EED: Jesse Rodin
!!!EEV: 2017/03/16/
!!!ONB: Translated from MusicXML and edited on 2017/03/16/ by Craig Sapp
!!muse2ps: C^@{COM}^i2I150v100,100,140Q16z18c57l2600
